static/img/kroki/649b4e25ec58515d1f02a4642ebdbce3.svg

<?xml version="1.0" encoding="us-ascii" standalone="no"?><svg xmlns="http://www.w3.org/2000/svg" xmlns:xlink="http://www.w3.org/1999/xlink" contentStyleType="text/css" height="252px" preserveAspectRatio="none" style="width:288px;height:252px;" version="1.1" viewBox="0 0 288 252" width="288px" zoomAndPan="magnify"><defs/><g><!--class aws_q_apps--><g id="elem_aws_q_apps"><rect codeLine="23" fill="#3D176E" height="39.7891" id="aws_q_apps" rx="2.5" ry="2.5" style="stroke:#000D19;stroke-width:0.5;" width="141" x="12.5" y="106.79"/><ellipse cx="27.5" cy="126.6845" fill="#ADD1B2" rx="11" ry="11" style="stroke:#181818;stroke-width:1.0;"/><path d="M30.4688,132.3252 Q29.8906,132.622 29.25,132.7627 Q28.6094,132.9189 27.9063,132.9189 Q25.4063,132.9189 24.0781,131.2783 Q22.7656,129.622 22.7656,126.497 Q22.7656,123.372 24.0781,121.7158 Q25.4063,120.0595 27.9063,120.0595 Q28.6094,120.0595 29.25,120.2158 Q29.9063,120.372 30.4688,120.6689 L30.4688,123.3877 Q29.8438,122.8095 29.25,122.5439 Q28.6563,122.2627 28.0313,122.2627 Q26.6875,122.2627 26,123.3408 Q25.3125,124.4033 25.3125,126.497 Q25.3125,128.5908 26,129.6689 Q26.6875,130.7314 28.0313,130.7314 Q28.6563,130.7314 29.25,130.4658 Q29.8438,130.1845 30.4688,129.6064 L30.4688,132.3252 Z " fill="#000000"/><text fill="#D9B8FF" font-family="Helvetica" font-size="17" lengthAdjust="spacing" textLength="99" x="46.5" y="132.5698">aws_q_apps</text></g><!--class aws_q_apps_library_item--><g id="elem_aws_q_apps_library_item"><rect codeLine="26" fill="#3D176E" height="39.7891" id="aws_q_apps_library_item" rx="2.5" ry="2.5" style="stroke:#000D19;stroke-width:0.5;" width="252" x="18" y="206.58"/><ellipse cx="33" cy="226.4745" fill="#ADD1B2" rx="11" ry="11" style="stroke:#181818;stroke-width:1.0;"/><path d="M35.9688,232.1152 Q35.3906,232.412 34.75,232.5527 Q34.1094,232.7089 33.4063,232.7089 Q30.9063,232.7089 29.5781,231.0683 Q28.2656,229.412 28.2656,226.287 Q28.2656,223.162 29.5781,221.5058 Q30.9063,219.8495 33.4063,219.8495 Q34.1094,219.8495 34.75,220.0058 Q35.4063,220.162 35.9688,220.4589 L35.9688,223.1777 Q35.3438,222.5995 34.75,222.3339 Q34.1563,222.0527 33.5313,222.0527 Q32.1875,222.0527 31.5,223.1308 Q30.8125,224.1933 30.8125,226.287 Q30.8125,228.3808 31.5,229.4589 Q32.1875,230.5214 33.5313,230.5214 Q34.1563,230.5214 34.75,230.2558 Q35.3438,229.9745 35.9688,229.3964 L35.9688,232.1152 Z " fill="#000000"/><text fill="#D9B8FF" font-family="Helvetica" font-size="17" lengthAdjust="spacing" textLength="210" x="52" y="232.3598">aws_q_apps_library_item</text></g><!--class aws_q_business_application--><g id="elem_aws_q_business_application"><rect codeLine="29" fill="#3D176E" height="39.7891" id="aws_q_business_application" rx="2.5" ry="2.5" style="stroke:#000D19;stroke-width:0.5;" width="274" x="7" y="7"/><ellipse cx="22" cy="26.8945" fill="#ADD1B2" rx="11" ry="11" style="stroke:#181818;stroke-width:1.0;"/><path d="M24.9688,32.5352 Q24.3906,32.832 23.75,32.9727 Q23.1094,33.1289 22.4063,33.1289 Q19.9063,33.1289 18.5781,31.4883 Q17.2656,29.832 17.2656,26.707 Q17.2656,23.582 18.5781,21.9258 Q19.9063,20.2695 22.4063,20.2695 Q23.1094,20.2695 23.75,20.4258 Q24.4063,20.582 24.9688,20.8789 L24.9688,23.5977 Q24.3438,23.0195 23.75,22.7539 Q23.1563,22.4727 22.5313,22.4727 Q21.1875,22.4727 20.5,23.5508 Q19.8125,24.6133 19.8125,26.707 Q19.8125,28.8008 20.5,29.8789 Q21.1875,30.9414 22.5313,30.9414 Q23.1563,30.9414 23.75,30.6758 Q24.3438,30.3945 24.9688,29.8164 L24.9688,32.5352 Z " fill="#000000"/><text fill="#D9B8FF" font-family="Helvetica" font-size="17" lengthAdjust="spacing" textLength="232" x="41" y="32.7798">aws_q_business_application</text></g><!--link aws_q_apps to aws_q_apps_library_item--><g id="link_aws_q_apps_aws_q_apps_library_item"><path codeLine="32" d="M95.05,147.01 C105.75,164.15 118.117,183.9677 128.797,201.1077 " fill="none" id="aws_q_apps-to-aws_q_apps_library_item" style="stroke:#1A83AF;stroke-width:2.0;"/><polygon fill="#1A83AF" points="131.97,206.2,130.6053,196.4461,129.3258,201.9564,123.8155,200.6769,131.97,206.2" style="stroke:#1A83AF;stroke-width:2.0;"/></g><!--link aws_q_business_application to aws_q_apps--><g id="link_aws_q_business_application_aws_q_apps"><path codeLine="33" d="M131.95,47.22 C121.25,64.36 108.883,84.1777 98.203,101.3177 " fill="none" id="aws_q_business_application-to-aws_q_apps" style="stroke:#1A83AF;stroke-width:2.0;"/><polygon fill="#1A83AF" points="95.03,106.41,103.1845,100.8869,97.6742,102.1664,96.3947,96.6561,95.03,106.41" style="stroke:#1A83AF;stroke-width:2.0;"/></g><!--link aws_q_business_application to aws_q_apps_library_item--><g id="link_aws_q_business_application_aws_q_apps_library_item"><path codeLine="34" d="M152.62,47.21 C159.12,62.9 167.51,85.8 171,106.79 C173.9,124.24 173.9,129.14 171,146.58 C167.51,167.57 161.4164,184.9268 154.9164,200.6168 " fill="none" id="aws_q_business_application-to-aws_q_apps_library_item" style="stroke:#1A83AF;stroke-width:2.0;"/><polygon fill="#1A83AF" points="152.62,206.16,159.76,199.3762,154.5337,201.5407,152.3692,196.3143,152.62,206.16" style="stroke:#1A83AF;stroke-width:2.0;"/></g><!--SRC=[dP91IyD048Nl-HKBFHSIYxQz2B5Gz5B4UXC9a-nikoJPZRDJInN_kurLsMPD2rxdVVlclM7NMgB0kk6TgB7EaLpaIcqQ8AX5IcItCrjP4WEbG8t6NN5k3Py55b2ZkCNg5LaNq2KUrxee3JedBZpf1efoHNPZvC6U2OpRIsZOesOLE9SoayutZ5uOESqdIdN9hkbW99Fn5GQO9OdqZSHnB9Df5pcxwcJlNsAftr0a_j4MbZ686QpueawcR0alP53qH-_DU0zIQhCIbzxiuP293DBHVBa6QRSjhQ1o_Xh7I6Xvr-0iQ8NJYLJZF-6xFZWgsjC9sBhi9OEcSU8zYZw2QLRfd81scMQiGoJVEDt-k9QjzhLPMtEWFEFXqo199wDq_ZoyxhEEJlZrlF_7a-ELdm00]--></g></svg>

<svg xmlns="http://www.w3.org/2000/svg" width="288" height="252" viewBox="0 0 288 252"><rect width="141" height="39.789" x="12.5" y="106.79" fill="#3D176E" rx="2.5" ry="2.5" style="stroke:#000d19;stroke-width:.5"/><circle cx="27.5" cy="126.684" r="11" fill="#ADD1B2" style="stroke:#181818;stroke-width:1"/><path d="M30.469 132.325q-.578.297-1.219.438-.64.156-1.344.156-2.5 0-3.828-1.64-1.312-1.657-1.312-4.782t1.312-4.781q1.328-1.656 3.828-1.656.703 0 1.344.156.656.156 1.219.453v2.719q-.625-.579-1.219-.844-.594-.281-1.219-.281-1.343 0-2.031 1.078-.687 1.062-.687 3.156t.687 3.172q.688 1.062 2.031 1.062.625 0 1.219-.265.594-.281 1.219-.86z"/><text x="46.5" y="132.57" fill="#D9B8FF" font-family="Helvetica" font-size="17" textLength="99">aws_q_apps</text><rect width="252" height="39.789" x="18" y="206.58" fill="#3D176E" rx="2.5" ry="2.5" style="stroke:#000d19;stroke-width:.5"/><circle cx="33" cy="226.475" r="11" fill="#ADD1B2" style="stroke:#181818;stroke-width:1"/><path d="M35.969 232.115q-.578.297-1.219.438-.64.156-1.344.156-2.5 0-3.828-1.64-1.312-1.657-1.312-4.782t1.312-4.781q1.328-1.656 3.828-1.656.703 0 1.344.156.656.156 1.219.453v2.719q-.625-.578-1.219-.844-.594-.281-1.219-.281-1.343 0-2.031 1.078-.687 1.062-.687 3.156t.687 3.172q.688 1.062 2.031 1.062.625 0 1.219-.265.594-.281 1.219-.86z"/><text x="52" y="232.36" fill="#D9B8FF" font-family="Helvetica" font-size="17" textLength="210">aws_q_apps_library_item</text><rect width="274" height="39.789" x="7" y="7" fill="#3D176E" rx="2.5" ry="2.5" style="stroke:#000d19;stroke-width:.5"/><circle cx="22" cy="26.895" r="11" fill="#ADD1B2" style="stroke:#181818;stroke-width:1"/><path d="M24.969 32.535q-.578.297-1.219.438-.64.156-1.344.156-2.5 0-3.828-1.64-1.312-1.657-1.312-4.782t1.312-4.781q1.328-1.656 3.828-1.656.703 0 1.344.156.656.156 1.219.453v2.719q-.625-.578-1.219-.844-.594-.281-1.219-.281-1.343 0-2.031 1.078-.687 1.062-.687 3.156t.687 3.172q.688 1.062 2.031 1.062.625 0 1.219-.265.594-.281 1.219-.86z"/><text x="41" y="32.78" fill="#D9B8FF" font-family="Helvetica" font-size="17" textLength="232">aws_q_business_application</text><path fill="none" d="M95.05 147.01a79860 79860 0 0 1 33.747 54.098" style="stroke:#1a83af;stroke-width:2"/><path fill="#1A83AF" d="m131.97 206.2-1.365-9.754-1.28 5.51-5.51-1.28z" style="stroke:#1a83af;stroke-width:2"/><path fill="none" d="M131.95 47.22a79860 79860 0 0 0-33.747 54.098" style="stroke:#1a83af;stroke-width:2"/><path fill="#1A83AF" d="m95.03 106.41 8.154-5.523-5.51 1.28-1.28-5.51z" style="stroke:#1a83af;stroke-width:2"/><path fill="none" d="M152.62 47.21c6.5 15.69 14.89 38.59 18.38 59.58 2.9 17.45 2.9 22.35 0 39.79-3.49 20.99-9.584 38.347-16.084 54.037" style="stroke:#1a83af;stroke-width:2"/><path fill="#1A83AF" d="m152.62 206.16 7.14-6.784-5.226 2.165-2.165-5.227z" style="stroke:#1a83af;stroke-width:2"/></svg>
